X:1
T:Morgen
T:Richard Stauss, op 27 n° 4
T:John Henry Mackay
T:Für hohe Stimme
%%score 1 { ( 2 4 ) | 3 }
L:1/8
Q:1/4=50
M:4/4
K:G
V:1 treble nm="Voice" snm="Vo."
V:2 treble nm="Piano" snm="Pno."
V:4 treble 
V:3 bass 
V:1
"^Langsam" z8 | z8 | z8 | z8 | z8 | z8 | z8 | z8 | z8 | z8 | z8 | z8 | z8 | %13
w: |||||||||||||
 z2"^sehr ruhig" z ^G G A B c | d G B4- B A | A2 G2 z G G F | B3 B z B2 B | B3 e e2 A A | %18
w: Und Mor- gen wird die|Son- ne wie- * der|schei- nen und auf dem|We- ge, den ich|ge- hen wer- de, wird|
 d3 d f3/2 A/ A2 | z A c3 d c2- | c2 B B B B B B | d3 d c2 c B | B2 A2 z4 | z F G A d e e2- | %24
w: uns, die Glück- li- chen,|sie wie- der ei-|* nen in- mit- ten die- ser|son- nen- at- men- den|Er- de...|und zu dem Strand, dem wei-|
 e2 d2 g3 B | A2 G2 G A B2 | d2 z e d2 c2 | e2 d2 B2 G2 | z8 | z8 | z4 z2 A2- | A2 A A A A A A | %32
w: * ten, wo- gen-|blau- en, wer- den wir|still und lang- sam|nie- der stei- gen,|||stumm|* wer- den wir uns in die|
 B3 B B2 B2 | z4"^immer ruhig" z2 B B | c4 c2 c2 | _e3 _A A2 G2 | G8 | F2 z2 z4 | z8 | z8 | z8 | %41
w: Au- gen schau- en,|und auf|uns sinkt des|Glük- kes stum- mes|Schwei-|gen...||||
 z8 | !fermata!z8 |] %43
w: ||
V:2
!p!"^sehr getragen" (B4 d4 | !arpeggio!e4 g4 | !arpeggio!b4 !arpeggio!a3 g | %3
 !arpeggio!g4 !arpeggio!f2) z2 | (!arpeggio!a4 c3 d | !arpeggio!c4 B2 (B2-) | [Bd]4 [Ac]3 [GB] | %7
 A8) | (!arpeggio!d4 f4 | !arpeggio!a4 g4) | (!arpeggio!e4 b4 | [de-bd']4 [ceac']4) | %12
 ([db]2 [Bg]2 [Gd]2 [DB]2 | f2 e2 d2 c2 | B2) z2 [CDF]2 z2 |!p! (B4 d4 | !arpeggio!e4 g4 | %17
 !arpeggio!b4 a3 g | g4 !arpeggio!f2) z2 | (!arpeggio!a4 c3 d | !arpeggio!c4 B2) (B2- | %21
 [Bd]4 [Ac]3 [GB] | A8) | (!arpeggio!d4 f4 | a4 g4) | (e4!>(! b4!>)! |!pp! [de-bd']4 [ceac']4) | %27
 ([db]2 [Bg]2 [Gd]2 [DB]2 | f2 e2 d2 c2) | ([GB]4!>(! A c2 F)!>)! | [B,=FA]8- | [B,FA]8 | %32
 [B,^DAB]8- | [B,DAB]8 | [C_EAc]8 | [_E_A_e]8 | [D=GAd]8- | [DGAd]6 z2 |!p! (B4 d4- | d8) | %40
 (e4 g4- |!>(! g4 [Beb]4)!>)! |!pp! !fermata![dgd']8 |] %43
V:3
!ped! (3(G,,D,G, (3B,[I:staff -1]DG)[I:staff +1] z4!ped-up! | %1
!ped! (3(G,,D,G, (3B,D[I:staff -1]G)[I:staff +1] z4!ped-up! | %2
 (3C,^G,B, E2!ped! (3C,A,C E2!ped-up! |!ped! (3(D,A,C D2- (3D!ped-up!CD A2) | %4
!ped! (3(^D,A,C (3^DFA) z4!ped-up! |!ped! (3(E,,B,,E, (3B,EG) z4!ped-up! | %6
!ped! (3(C,,C,^G, B,2)!ped-up!!ped! (3(C,,C,A, C2)!ped-up! | %7
!ped! (3(D,,A,,D, (3F,A,D F2) z2!ped-up! |!ped! (3(C,F,A, (3DFA) z4!ped-up! | %9
!ped! (3(B,,D,B, (3DGB) z4!ped-up! |!ped! (3(E,G,B, (3EGB) z4!ped-up! | %11
!ped! (3(A,,E,B, (3DEB [CA]2)!ped-up! z2 |!ped! !arpeggio![D,,D,] G,2 B,2 E3!ped-up! | %13
 ([B,D]4 [CE]4 | D2) z2 D,2 z2 |!ped! (3(G,,D,G, (3B,[I:staff -1]DG)[I:staff +1] z4!ped-up! | %16
!ped! (3(G,,D,G, (3B,D[I:staff -1]G)[I:staff +1] z4!ped-up! | %17
!ped! (3(B,,^G,B, E2)!ped-up!!ped! (3(C,A,C E2)!ped-up! |!ped! (3(D,A,C D2- (3D!ped-up!CD A2) | %19
!ped! (3(^D,A,C (3^DFA) z4!ped-up! |!ped! (3(E,,B,,E, (3B,EG) z4!ped-up! | %21
!ped! (3(C,,C,^G, B,2)!ped-up!!ped! (3(C,,C,A, C2)!ped-up! | %22
!ped! (3(D,,A,,D, (3F,A,D F2) z2!ped-up! |!ped! (3(C,F,A, (3DFA) z4!ped-up! | %24
!ped! (3(B,,D,B, (3DGB) z4!ped-up! |!ped! (3(E,G,B, (3EGB) z4!ped-up! | %26
!ped! (3(A,,E,B, (3DEB [CA]2)!ped-up! z2 |!ped! (!arpeggio![D,,D,] G,2 B,2 E3)!ped-up! | %28
 [B,D]4 [CE]4 | D4 D,4 |!pp!!ped! [G,,D,G,]8- | [G,,D,G,]8 |!ped! [F,,B,,^D,A,]8-!ped-up! | %33
 [F,,B,,D,A,]8 |!ped! [=F,,C,_E,A,]8!ped-up! |!ped! [C,,_A,,C,]8!ped-up! | [D,,=A,,D,]8- | %37
 [D,,A,,D,]6 z2 |!ped! (3(G,,D,G, (3B,[I:staff -1]DG)[I:staff +1] x4!ped-up! | z8 | %40
!ped! (3(G,,!ped-up!D,G, (3B,D[I:staff -1]G)[I:staff +1] x4 | z4 [EG]4 | !fermata![DGB]8 |] %43
V:4
 x8 | !arpeggio![EB]2 x6 | !arpeggio![Be]2 x2 !arpeggio![Ae]2 x2 | %3
 !arpeggio![Gcd]2 x2 !arpeggio!F2 x2 | !arpeggio!A2 x6 | !arpeggio!G2 x6 | E4 x4 | F2 x6 | %8
 !arpeggio![DA]2 x6 | !arpeggio![Ad]2 x6 | !arpeggio![EB]2 x6 | x8 | x8 | ^G4 A4 | G2 x6 | x8 | %16
 !arpeggio![EB]2 x6 | [Be]2 x2 !arpeggio![Ae]2 x2 | !arpeggio![Gc]2 x2 !arpeggio!F2 x2 | %19
 !arpeggio!A2 x6 | G2 x6 | E4 x4 | F2 x6 | [DA]2 x6 | !arpeggio![Ad]2 x6 | !arpeggio![EB]2 x6 | %26
 x8 | x8 | ^G4 A4 | x4 [CDF]2 x2 | x8 | x8 | x8 | x8 | x8 | x8 | x8 | x8 | x8 | x8 | [EB]2 x6 | %41
 x8 | x8 |] %43

